X:1
T:Surgite Sancti
T:Surgite Sancti
T:MH 327
T:J Michael Haydn
T:BSB Mms 3114
T:BSB Mms 3114
C:J Michael Haydn
Z:BSB Mms 3114
%%score [ 1 2 3 4 ]
L:1/8
M:2/2
K:F
V:1 treble nm="Soprano"
V:2 treble nm="Alto"
V:3 treble-8 nm="Tenor"
V:4 bass nm="Bass"
V:1
 A6 B2 | c4 c4- | c4 c4 | f6 _e2 | d8 | c8 | z8 | z8 | z2 c2 A2 G2 | F3 F c4 | c4 =B4 | c4 z4 | %12
w: Surg- i-|te San-|* cti|San- cti|De-|i|||de man- si-|o- ni- bus|ve- *|stris|
 z8 | z4 c4- | c2 d2 B2 cB | A6 B2 | c8- | c4 B4 | A4 d4- | d2 G2 d2 c2 | B6 A2 | G4 A4 | G6 G2 | %23
w: |lo-|* * ca san- *|cti- fi-|ca-||te ple-|* bem be- ne-|di- *||* ci-|
 F8- | F8 | z4 f4- | f4 _e4 | d8- | d4 c4 | =B4 c4- | c4 _B4 | B4 A4 | _A8- | A4 G4 | z4 c4 | F8 | %36
w: te|_|et|_ nos|ho-|* mi-|nes pec-|* ca-|to- *||* res|in|pa-|
 G8 | =A8 | B8 | c8- | c8- | c8- | c4 B4- | B4 A4- | A4 G4- | G2 C2 F4- | F4 E2 D2 | E8 | %48
w: ce|cu-|sto-|di-|||* te|_ cu-||* sto- di-|||
 !fermata!F16 |] %49
w: te.|
V:2
 F6 G2 | A4 A2 G2 | F8 | F8 | F8 | F4 z4 | z8 | z2 F2 E2 D2 | C6 E2 | F4 F2 G2 | A4 G4- | %11
w: Surg- i-|te San- *||cti|De-|i||de man- si-|o- ni-|bus ve- *|stris lo-|
 G2 A2 F2 GF | E2 F2 G4- | G2 C2 F4- | F4 E4 | z4 A4- | A2 B2 G2 AG | ^F2 D2 G4- | G4 ^F4 | %19
w: * * ca san- *|cti- fi- ca-||* te|lo-|* * ca san- *|cti- fi- ca-|* te|
 z4 G4- | G2 D2 G2 =F2 | E4 F4- | F4 _E4- | E4 D4 | C8- | C4 B,2 D2 | G4 A4 | B6 F2 | F8 | z4 G4- | %30
w: ple-|* bem be- ne-|di- *||* ci-|te|_ be- ne-|di- *|* ci-|te|et|
 G4 G4 | G3 G F4 | F2 F2 F4- | F4 E4 | z8 | z8 | z8 | z8 | z8 | z8 | z4 c4 | _E8 | D8 | =E4 F4- | %44
w: _ nos|ho- mi- nes|pec- ca- to-|* res|||||||in|pa-|ce|cu- *|
 F4 E2 D2 | C8- | C8- | C8 | !fermata!C16 |] %49
w: * sto- *|di-|||te.|
V:3
 z8 | A6 B2 | c4 c2 B2 | A2 B2 c4- | c2 B2 B4 | A4 z4 | z2 c2 A2 G2 | F8 | G4 A2 B2 | c4 f2 e2 | %10
w: |Surg- i-|te San- *||* cti De-|i|de man- si-|o-|* ni- bus|ve- * *|
 d8 | c4 c4 | c2 d2 B2 cB | A8 | G8 | D2 A2 c4 | z4 c4 | d2 A2 B2 c2 | d4 D4 | z8 | z8 | z4 c4- | %22
w: |stris lo-|* * ca san- *|cti-|fi-|ca- * te|san-|cti- * fi- *|ca- te|||ple-|
 c2 G2 c2 B2 | A4 B4- | B4 A2 G2 | F4 B4 | c3 F F4 | z8 | z4 f4- | f4 _e4 | d4 d2 d2 | c4 c4 | d8 | %33
w: * bem be- ne-|di- *|||* ci- te||et|_ nos|ho- mi- nes|pec- ca-|to-|
 c8 | z8 | z8 | z4 c4 | F8 | G8 | A8 | B4 E4 | F8- | F4 G4- | G4 A2 B2 | c6 B2 | A8 | G8- | G8 | %48
w: res|||in|pa-|ce|cu-|* sto-|di-|* te|_ cu- sto-|di- *||||
 !fermata!A16 |] %49
w: te.|
V:4
 z8 | F,6 G,2 | A,4 A,2 G,2 | F,4 A,,4 | B,,8 | F,2 F,2 E,2 D,2 | C,8 | D,6 D,2 | E,4 F,2 G,2 | %9
w: |Surg- i-|te San- *|* cti|De-|i de man- si-|o-|* ni-|bus ve- *|
 A,6 G,2 | F,4 G,4 | C,4 z4 | z8 | z8 | z8 | z4 F,4- | F,2 G,2 _E,2 F,E, | D,8- | D,6 C,2 | %19
w: ||stris||||lo-|* * ca san- *|cti-|* fi-|
 B,,6 A,,2 | G,,4 z4 | z8 | z8 | z4 F,4- | F,2 C,2 F,2 _E,2 | D,8 | C,6 C,2 | B,,4 B,4- | %28
w: ca- *|te|||ple|* bem be- ne-|di-|* ci-|te et|
 B,4 _A,4 | G,8- | G,4 G,2 F,2 | E,4 F,4 | =B,,8 | C,8 | z8 | z8 | z8 | z8 | z4 C,4 | F,,8 | G,,8 | %41
w: _ nos|ho-|* mi- nes|pec- ca-|to-|res|||||in|pa-|ce|
 A,,8 | B,,8 | C,8- | C,8- | C,8- | C,8- | C,8 | !fermata!F,,16 |] %49
w: cu-|sto-|di-|||||te.|

